X: 3655
T: Bill The Weaver's
R: slide
M: 12/8
K: Dmajor
g3|:fed B2d A2d F2B|A2F DEF E3 E2g|
fed B2d A2d F2B|1 A2F EFE D3:|2 A2F EFE D3 D2g||
|:fef a2a baf a2f|fef a2f g3 f2e|
[1fef a2a baf a2f|d2f a2f d3 d2g:|
[2fga efg fed B2d|ABA GFE D3||

